X:7157
T:The Old Pipe Reel
O:england
C:Trad
R:Reel
M:C
K:Am
L:1/8
|: A2 A2 GAAd | e2 de gede | a2 ea gedB | A2 A2 BGGB |
ABAG A2 AB | e2 de gede | a2 ea gedB | A2 A2 GA A2 :|
|: a2 ea gede | a2 ea gede | a2 ea gedB | A2 A2 BGGB |
ABAG A2 AB | e2 de gede | a2 ea gedB | A2 A2 GA A2 :|
|: A2 A2 GAAd | e2 de gedB | A2 A2 GA eg | e2 dA BGGB |
ABAG A2 AB | e2 de gede | a2 ea gedB | A2 A2 GA A2 :|
|: a2 a2 gede | a2 a2 gede | a2 a2 gedB | AGAc BGGA |
ABAG A2 AB | e2 de gede | a2 ea gedB | A2 A2 GA A2 :|


